src/images/Icons/06_blender.svg

<?xml version="1.0" encoding="UTF-8"?>
<svg width="16px" height="26px" viewBox="0 0 16 26" version="1.1" xmlns="http://www.w3.org/2000/svg" xmlns:xlink="http://www.w3.org/1999/xlink">
    <!-- Generator: Sketch 51.3 (57544) - http://www.bohemiancoding.com/sketch -->
    <title>Group 14</title>
    <desc>Created with Sketch.</desc>
    <defs>
        <polygon id="path-1" points="0 0.0614511628 15.980093 0.0614511628 15.980093 25.8604651 0 25.8604651"></polygon>
    </defs>
    <g id="Welcome" stroke="none" stroke-width="1" fill="none" fill-rule="evenodd">
        <g id="CLanding" transform="translate(-1016.000000, -2705.000000)">
            <g id="Facilities" transform="translate(0.000000, 2129.000000)">
                <g id="Group-5" transform="translate(810.000000, 325.000000)">
                    <g id="Group-20">
                        <g id="Group-14" transform="translate(206.000000, 251.000000)">
                            <path d="M7.14690233,8.41823256 L8.39136744,8.41823256 C8.71825116,8.41823256 8.98336744,8.15330233 8.98336744,7.8264186 C8.98336744,7.49934884 8.71825116,7.2344186 8.39136744,7.2344186 L7.14690233,7.2344186 C6.8200186,7.2344186 6.55508837,7.49934884 6.55508837,7.8264186 C6.55508837,8.15330233 6.8200186,8.41823256 7.14690233,8.41823256" id="Fill-1" fill="#1D1D1B"></path>
                            <path d="M7.14690233,10.5294326 L8.39136744,10.5294326 C8.71825116,10.5294326 8.98336744,10.2645023 8.98336744,9.9376186 C8.98336744,9.61054884 8.71825116,9.3456186 8.39136744,9.3456186 L7.14690233,9.3456186 C6.8200186,9.3456186 6.55508837,9.61054884 6.55508837,9.9376186 C6.55508837,10.2645023 6.8200186,10.5294326 7.14690233,10.5294326" id="Fill-3" fill="#1D1D1B"></path>
                            <path d="M7.14690233,12.6406512 L8.39136744,12.6406512 C8.71825116,12.6406512 8.98336744,12.3755349 8.98336744,12.0488372 C8.98336744,11.7217674 8.71825116,11.4568372 8.39136744,11.4568372 L7.14690233,11.4568372 C6.8200186,11.4568372 6.55508837,11.7217674 6.55508837,12.0488372 C6.55508837,12.3755349 6.8200186,12.6406512 7.14690233,12.6406512" id="Fill-5" fill="#1D1D1B"></path>
                            <path d="M7.14690233,14.7518884 L8.39136744,14.7518884 C8.71825116,14.7518884 8.98336744,14.486586 8.98336744,14.1600744 C8.98336744,13.8333767 8.71825116,13.5680744 8.39136744,13.5680744 L7.14690233,13.5680744 C6.8200186,13.5680744 6.55508837,13.8333767 6.55508837,14.1600744 C6.55508837,14.486586 6.8200186,14.7518884 7.14690233,14.7518884" id="Fill-7" fill="#1D1D1B"></path>
                            <path d="M7.78336744,21.6714977 C7.40234419,21.6714977 7.0923907,21.3613581 7.0923907,20.9805209 C7.0923907,20.5996837 7.40234419,20.2899163 7.78336744,20.2899163 C8.16420465,20.2899163 8.47397209,20.5996837 8.47397209,20.9805209 C8.47397209,21.3613581 8.16420465,21.6714977 7.78336744,21.6714977 M7.78336744,19.1061023 C6.74950698,19.1061023 5.90857674,19.9470326 5.90857674,20.9805209 C5.90857674,22.0143814 6.74950698,22.8553116 7.78336744,22.8553116 C8.81685581,22.8553116 9.65778605,22.0143814 9.65778605,20.9805209 C9.65778605,19.9470326 8.81685581,19.1061023 7.78336744,19.1061023" id="Fill-9" fill="#1D1D1B"></path>
                            <g id="Group-13" transform="translate(0.000000, 0.124651)">
                                <mask id="mask-2" fill="white">
                                    <use xlink:href="#path-1"></use>
                                </mask>
                                <g id="Clip-12"></g>
                                <path d="M12.3978791,18.6141953 L12.8559256,23.6752186 L2.7108093,23.6752186 L3.16904186,18.6099163 C3.19378605,18.312614 3.51266977,18.0517767 3.85146047,18.0517767 L11.7149023,18.0517767 C12.053693,18.0517767 12.3725767,18.312614 12.3978791,18.6141953 Z M3.70894884,3.95428837 C4.78150698,2.95540465 6.28048372,2.34442791 7.77053023,2.34442791 C9.26076279,2.34442791 10.7602977,2.95540465 11.8326698,3.95428837 L3.70894884,3.95428837 Z M13.3483907,7.20024186 L14.7941581,7.20024186 L14.7941581,11.008614 C14.7941581,11.0227535 14.7947163,11.0372651 14.7956465,11.0515907 C14.7962047,11.060707 14.8451349,11.9978233 14.2096,12.6808 C13.837507,13.0808 13.2916465,13.3269395 12.585786,13.4186605 L13.3483907,7.20024186 Z M15.0763907,13.4873116 C16.0058791,12.4876837 15.9876465,11.2017302 15.9779721,10.992614 L15.9779721,6.60842791 C15.9779721,6.28135814 15.7128558,6.01661395 15.3859721,6.01661395 L13.493693,6.01661395 L13.6667163,4.60545116 C13.6788093,4.50684651 13.6633674,4.4115907 13.6302512,4.32470698 C13.6263442,4.30982326 13.6241116,4.29512558 13.6183442,4.28042791 C13.5861581,4.20098605 13.5509953,4.13549767 13.5046698,4.0703814 C12.3409488,2.43261395 10.4088558,1.36377674 8.36104186,1.18870698 L8.36104186,0.653265116 C8.36104186,0.326567442 8.09592558,0.0614511628 7.76922791,0.0614511628 C7.44234419,0.0614511628 7.17722791,0.326567442 7.17722791,0.653265116 L7.17722791,1.18926512 C5.1803907,1.36042791 3.29648372,2.38331163 2.12494884,3.95428837 L0.591925581,3.95428837 C0.352297674,3.95428837 0.136297674,4.09847442 0.0447627907,4.32042791 C-0.046772093,4.54182326 0.00457674419,4.79670698 0.174437209,4.96582326 L2.16904186,6.94963721 L3.29127442,15.852893 L4.4843907,15.852893 L3.31787907,6.59745116 C3.30020465,6.45754419 3.23304186,6.33698605 3.13853023,6.2463814 C3.1348093,6.24284651 3.13257674,6.23819535 3.12885581,6.23484651 L2.02615814,5.13791628 L12.4088558,5.13791628 L10.9703442,16.8679628 L3.85146047,16.8679628 C2.9003907,16.8679628 2.06485581,17.6050791 1.98969302,18.5072186 L1.52215814,23.6752186 L1.48643721,23.6752186 C1.15973953,23.6752186 0.894623256,23.9405209 0.894623256,24.2672186 C0.894623256,24.5937302 1.15973953,24.8590326 1.48643721,24.8590326 L2.50950698,24.8590326 L2.50950698,25.2685209 C2.50950698,25.5952186 2.77462326,25.8605209 3.10150698,25.8605209 C3.42820465,25.8605209 3.69332093,25.5952186 3.69332093,25.2685209 L3.69332093,24.8590326 L11.873414,24.8590326 L11.873414,25.2685209 C11.873414,25.5952186 12.1383442,25.8605209 12.4652279,25.8605209 C12.7921116,25.8605209 13.0572279,25.5952186 13.0572279,25.2685209 L13.0572279,24.8590326 L14.0802977,24.8590326 C14.4069953,24.8590326 14.6721116,24.5937302 14.6721116,24.2672186 C14.6721116,23.9405209 14.4069953,23.6752186 14.0802977,23.6752186 L14.0443907,23.6752186 L13.5772279,18.5114977 C13.5136,17.7494512 12.9106233,17.112614 12.1556465,16.9276837 L12.4380651,14.6253581 C13.5673674,14.5381023 14.453693,14.1565209 15.0763907,13.4873116 Z" id="Fill-11" fill="#1D1D1B" mask="url(#mask-2)"></path>
                            </g>
                        </g>
                    </g>
                </g>
            </g>
        </g>
    </g>
</svg>

<svg width="16" height="26" viewBox="0 0 16 26" xmlns="http://www.w3.org/2000/svg" xmlns:xlink="http://www.w3.org/1999/xlink"><defs><path id="a" d="M0 .061h15.98v25.8H0z"/></defs><g fill="none" fill-rule="evenodd"><path d="M7.147 8.418H8.39a.592.592 0 100-1.184H7.147a.592.592 0 100 1.184m0 2.112H8.39a.592.592 0 100-1.184H7.147a.592.592 0 100 1.183m0 2.111H8.39a.592.592 0 000-1.183H7.147a.592.592 0 100 1.184m0 2.111H8.39a.592.592 0 000-1.184H7.147a.592.592 0 000 1.184m.636 6.919a.692.692 0 010-1.381.691.691 0 010 1.381m0-2.565a1.877 1.877 0 00-1.874 1.875c0 1.033.84 1.874 1.874 1.874 1.034 0 1.875-.84 1.875-1.874a1.877 1.877 0 00-1.875-1.875" fill="#1D1D1B"/><g transform="translate(0 .125)"><mask id="b" fill="#fff"><use xlink:href="#a"/></mask><path d="M12.398 18.614l.458 5.061H2.71l.458-5.065c.025-.297.344-.558.682-.558h7.864c.339 0 .658.26.683.562zm-8.69-14.66c1.074-.999 2.572-1.61 4.063-1.61 1.49 0 2.99.611 4.062 1.61H3.709zm9.64 3.246h1.446v3.809c0 .014 0 .028.002.043 0 .009.05.946-.586 1.629-.372.4-.918.646-1.624.738l.762-6.219zm1.728 6.287c.93-1 .912-2.285.902-2.494V6.608a.592.592 0 00-.592-.591h-1.892l.173-1.412a.585.585 0 00-.037-.28c-.004-.015-.006-.03-.012-.045a.99.99 0 00-.113-.21C12.34 2.433 10.409 1.364 8.36 1.19V.653a.592.592 0 00-1.184 0v.536c-1.997.171-3.88 1.194-5.052 2.765H.592a.592.592 0 00-.418 1.012L2.17 6.95l1.122 8.903h1.193L3.318 6.597a.587.587 0 00-.18-.35c-.003-.004-.005-.009-.01-.012L2.027 5.138H12.41l-1.439 11.73h-7.12c-.95 0-1.786.737-1.861 1.64l-.468 5.167h-.036a.592.592 0 000 1.184H2.51v.41a.592.592 0 001.183 0v-.41h8.18v.41a.592.592 0 001.184 0v-.41h1.023a.592.592 0 000-1.184h-.036l-.467-5.164c-.063-.762-.666-1.398-1.421-1.583l.282-2.303c1.13-.087 2.016-.468 2.638-1.138z" fill="#1D1D1B" mask="url(#b)"/></g></g></svg>
